!!!SOCIAL_FUNCTION:	songs of the drum-presentation ceremony
!!!PDT:	1913
!!!OTL: No_65_War_Song.krn
!!!REG: Great_Lakes
!!!LANG: Non-Tone
!!!LING_GROUP: Algonquin
**kern	**kern
*staff2	*staff1
*clefF4	*clefF4
*k[f#c#g#d#a#]	*k[f#c#g#d#a#]
*M2/4	*M2/4
16r	16d#\
=1	=1
12GG#^/	12d#\L
12r	12c#\
12GG#/	12c#\J
12GG#^/	16B\LK
.	8.A#\J
12r	.
12GG#/	.
=2||	=2||
*M3/4	*M3/4
12GG#^/	12B\L
12r	12A#\
12GG#/	12A#\J
12GG#^/	4.G#\
12r	.
12GG#/	.
12GG#^/	.
12r	.
.	8E\
12GG#/	.
=3||	=3||
*M2/4	*M2/4
2r	4G#\
.	8G#\L
.	8G#\J
=4	=4
2r	4G#\
.	4G#\
=5	=5
2r	4.G#\
.	8G#\
=6||	=6||
*M3/4	*M3/4
2.r	[2G#\
.	8.G#\L]
.	16A#\Jk
=7||	=7||
*M2/4	*M2/4
2r	12A#\L
.	12G#\
.	12G#\J
.	16G#\LK
.	8.G#\J
=8||	=8||
*M3/4	*M3/4
2.r	12A#\L
.	12G#\
.	12G#\J
.	4.G#\
.	8E\
=9||	=9||
*M2/4	*M2/4
2r	4G#\
.	8G#\L
.	8G#\J
=10	=10
2r	8.E\L
.	16D#\Jk
.	8.D#\L
.	16G#\Jk
=11	=11
2r	8G#\L
.	8G#\J
.	8E\L
.	8D#\J
=12||	=12||
*M3/4	*M3/4
2.r	12E\L
.	12D#\
.	12D#\J
.	4.D#\
.	8BB/
=13||	=13||
*M2/4	*M2/4
2r	4D#\
.	8D#/L
.	8BB/J
=14	=14
2r	12BB/L
.	12AA#/
.	12AA#/J
.	4GG#/
=15	=15
2r	8BB/L
.	8BB/J
.	8BB/L
.	8BB/J
=16	=16
2r	12BB/L
.	12AA#/
.	12AA#/J
.	4GG#/
=17	=17
2r	4.GG#/
.	8GG#/
=18	=18
2r	4..GG#/
.	16r
==	==
*-	*-
